X:1
T:Minnewaska, 12.12.12.12
T:William James Kirkpatrick, 1911
T:Minnewaska, 12.12.12.12
T:Public Domain
C:William James Kirkpatrick, 1911
Z:Public Domain
%%score ( 1 2 ) ( 3 4 )
L:1/8
M:3/4
K:Eb
V:1 treble 
V:2 treble 
V:3 bass 
V:4 bass 
V:1
 [EG]2 | [EG]3 [EG] [FA][GB] | [^Fc][Fd] [GB]2 [EG]2 | (G2 F2) (DF) | [EG]4 [FG]2 | %5
 [EG]3 G [G=A][G=B] | [Gc][Fd] [Ge]2 [_GB]2 | (B2 =A2) [Ec]2 | [DB]4 [EB]2 | [DB][Dc] [DF]3 [DB] | %10
 [EB][Ec] [EG]2 [EG]2 | (e2 d2) (GA) | [G=B]4 [FB]2 | [Ec]>[EF] [EF]2 [Ec]2 | [EB]>E E2 [FA]2 | %15
 ([FA]2 [EG]2) [DF]2 | E4 |] %17
V:2
 x2 | x6 | x6 | E4 A2 | x6 | x3 G x2 | x6 | F4 x2 | x6 | x6 | x6 | G4 c2 | x6 | x6 | %14
 x3/2 E/ E2 x2 | x6 | E4 |] %17
V:3
 [E,B,]2 | [E,B,]3 [E,B,] [E,B,][E,B,] | [E,=A,][E,A,] [E,B,]2 [E,B,]2 | [A,,C]4 [B,,B,]2 | %4
 [E,B,]4 [D,=B,]2 | [C,C]3 [G,E] [G,E][F,D] | [D,C][D,=B,] [C,C]2 [C,E]2 | (D2 C2) [F,=A,]2 | %8
 [B,,B,]4 [E,G,]2 | [F,A,][F,A,] [A,B,]3 [F,A,] | [G,B,][G,B,] [E,B,]2 [E,B,]2 | %11
 ([C,C]2 [D,F]2) (E,F,) | [G,D]4 [G,,G,D]2 | [A,,A,C]>[A,,A,C] [A,,A,C]2 [=A,,^F,]2 | %14
 [B,,G,]>[C,G,] [C,G,]2 [F,,F,C]2 | (DC) B,2 [B,,A,]2 | [E,G,]4 |] %17
V:4
 x2 | x6 | x6 | x6 | x6 | x6 | x6 | F,4 x2 | x6 | x6 | x6 | x4 E2 | x6 | x6 | x6 | A,,4 x2 | x4 |] %17

